resources/godot_icons/dark/NavigationObstacle2D.svg

<svg clip-rule="evenodd" fill-rule="evenodd" stroke-linejoin="round" stroke-miterlimit="2" viewBox="0 0 16 16" xmlns="http://www.w3.org/2000/svg"><path d="m8 .875c-.625 0-1.25.375-1.5 1.125l-3 10h4.5v-3h-2.5l1-4h1.5zm-6 12.125c-1 0-1 2 0 2h6v-2z" fill="#e0e0e0"/><path d="m8 .875v4.125h1.5l1 4h-2.5v3h4.5l-3-10c-.25-.75-.875-1.125-1.5-1.125zm0 12.125v2h6c1 0 1-2 0-2z" fill="#a5b7f3"/></svg>

<svg height="16" width="16" viewBox="0 0 16 16" xmlns="http://www.w3.org/2000/svg"><path d="M8 .875C7.375.875 6.75 1.25 6.5 2l-3 10H8V9H5.5l1-4H8zM2 13c-1 0-1 2 0 2h6v-2z" fill="#e0e0e0"/><path d="M8 .875V5h1.5l1 4H8v3h4.5l-3-10C9.25 1.25 8.625.875 8 .875zM8 13v2h6c1 0 1-2 0-2z" fill="#a5b7f3"/></svg>
